X:1
T:Zürich, SM
T:Zürich, SM
T:Hans Georg Nägeli (1773-1836)
T:Public Domain Courtesy of the Cyber Hymnal™
C:Hans Georg Nägeli (1773-1836)
Z:Public Domain
Z:Courtesy of the Cyber Hymnal™
%%score ( 1 2 ) ( 3 4 )
L:1/8
Q:1/4=110
M:4/2
K:F
V:1 treble 
V:2 treble 
V:3 bass 
V:4 bass 
V:1
 (__G=G) | [FA]3 [FA] [GB]2 [FA]2 | ([FA]4 [EG]2) (AG) | [F__G]3 [FG] [F=G]2 [Ec]2 | [FA]6 [Fc]2 | %5
 [Fd]3 [Ec] [FB]2 [FA]2 | [Fc]3 [FB] [FA]2 [EG]2 | [F__G]3 [F=G] [FA]2 [EG]2 | [F__G]6 |] %9
V:2
 F2 | x8 | x6 E2 | x8 | x8 | x8 | x8 | x8 | x6 |] %9
V:3
 (A,B,) | [F,C]3 [F,C] [E,C]2 [F,C]2 | [C,C]6 (CB,) | [D,A,]3 [D,A,] [C,C]2 [C,C]2 | %4
 [F,C]6 [F,A,]2 | [B,,B,]3 [C,F,] [D,F,]2 [F,C]2 | [A,,C]3 [B,,D] [C,C]2 [C,B,]2 | %7
 [D,A,]3 [B,,D] [C,C]2 [C,B,]2 | [F,A,]6 |] %9
V:4
 F,2 | x8 | x6 C,2 | x8 | x8 | x8 | x8 | x8 | x6 |] %9

